CuiMuxuan/matsci-gnn-pinn/docs/results/phase106_nist_ammt_spatial_target_representation_gate/phase106_nist_ammt_spatial_target_field_table.csv
x,y,t,target_intensity_mean,target_intensity_std,target_intensity_min,target_intensity_max,target_intensity_q90,source_layer_index,target_layer_index,target_camera_code,source_x_mean,source_y_mean,source_p_mean,source_t_mean,source_x_range,source_y_range,source_p_range,source_t_range,source_p_nonzero_fraction,source_rows_read,source_rows_truncated,target_pixel_count,target_width,target_height,target_bits_per_pixel,split_name,row_id,source_member_name,target_member_name,target_center_mean,target_periphery_mean,target_center_periphery_contrast,target_hot_fraction_q90,target_top_half_mean,target_bottom_half_mean,target_left_half_mean,target_right_half_mean,target_vertical_contrast,target_horizontal_contrast,target_quadrant_contrast,target_grid_max_mean,target_grid_min_mean,target_grid_mean_range,target_local_variance_mean,target_gradient_mean,target_gradient_q90,target_sample_stride,target_sampled_width,target_sampled_height,target_sampled_pixel_count,target_intensity_q90_recomputed,target_camera_pair_mean_delta,target_camera_pair_std_delta,target_camera_pair_gradient_delta
-1.811107,-2.760944,2,109.482011,27.023576,10,255,138.000000,2,2,0,-1.811107,-2.760944,145.087036,0.001939,91.010000,50.810000,235.028177,2.000000,0.805249,3019778,false,4000000,2000,2000,8,train,In-situ Meas Data/Layer Camera/A{index}.bmp::0002,Build Command Data/XYPT Commands/T500_3D_Scan_Strategies_fused_layer0002.csv,In-situ Meas Data/Layer Camera/A0002.bmp,135.578609,106.911998,28.666611,0.106720,121.197504,107.190048,111.074080,117.313472,14.007456,-6.239392,20.246848,142.296723,81.018689,61.278034,25.584021,7.251695,12.727922,8,250,250,62500,142.000000,-1.969010,-4.855048,-2.234373
0.110425,-2.399388,3,109.729799,27.457667,10,255,137.000000,3,3,0,0.110425,-2.399388,147.934996,0.003854,91.010000,50.811000,337.921243,2.000000,0.815874,3572844,false,4000000,2000,2000,8,train,In-situ Meas Data/Layer Camera/A{index}.bmp::0003,Build Command Data/XYPT Commands/T500_3D_Scan_Strategies_fused_layer0003.csv,In-situ Meas Data/Layer Camera/A0003.bmp,135.333333,107.320993,28.012340,0.102432,120.957984,107.915168,112.006848,116.866304,13.042816,-4.859456,17.902272,141.696109,81.208397,60.487711,27.814245,7.408304,13.000000,8,250,250,62500,142.000000,-3.757244,-4.930423,-2.501570
-2.168910,-2.532706,4,109.202357,28.071861,11,255,137.000000,4,4,0,-2.168910,-2.532706,142.701208,0.001899,91.010000,50.810000,234.901664,2.000000,0.800250,3083028,false,4000000,2000,2000,8,train,In-situ Meas Data/Layer Camera/A{index}.bmp::0004,Build Command Data/XYPT Commands/T500_3D_Scan_Strategies_fused_layer0004.csv,In-situ Meas Data/Layer Camera/A0004.bmp,134.668367,106.867150,27.801217,0.112832,120.222944,107.635264,111.529376,116.328832,12.587680,-4.799456,17.387136,140.905786,80.826421,60.079365,29.769336,7.506241,13.038405,8,250,250,62500,141.000000,-2.863442,-4.563454,-2.450646
-1.215392,-0.547020,5,109.503286,28.082353,11,255,137.000000,5,5,0,-1.215392,-0.547020,140.633100,0.003100,91.010000,50.810995,234.891638,2.000000,0.790935,2983098,false,4000000,2000,2000,8,train,In-situ Meas Data/Layer Camera/A{index}.bmp::0005,Build Command Data/XYPT Commands/T500_3D_Scan_Strategies_fused_layer0005.csv,In-situ Meas Data/Layer Camera/A0005.bmp,134.354875,107.321165,27.033710,0.113472,120.175136,108.201184,111.749664,116.626656,11.973952,-4.876992,16.850944,141.243472,81.265489,59.977983,30.106556,7.554056,13.038405,8,250,250,62500,141.000000,-6.618103,-6.324084,-2.299383
-1.965121,-2.947774,6,110.760294,28.093828,11,255,138.000000,6,6,0,-1.965121,-2.947774,143.833176,0.003713,91.010000,50.810000,234.882388,2.000000,0.806066,3118681,false,4000000,2000,2000,8,train,In-situ Meas Data/Layer Camera/A{index}.bmp::0006,Build Command Data/XYPT Commands/T500_3D_Scan_Strategies_fused_layer0006.csv,In-situ Meas Data/Layer Camera/A0006.bmp,135.361993,108.655499,26.706494,0.110560,121.370848,109.507904,113.671840,117.206912,11.862944,-3.535072,15.398016,141.367640,82.311316,59.056324,29.033052,7.600615,13.038405,8,250,250,62500,142.000000,-1.424288,-4.548460,-2.322722
0.071529,-2.364212,7,109.395400,27.864478,10,255,137.000000,7,7,0,0.071529,-2.364212,146.913714,0.002150,91.010000,50.810000,235.062382,2.000000,0.817918,3613174,false,4000000,2000,2000,8,train,In-situ Meas Data/Layer Camera/A{index}.bmp::0007,Build Command Data/XYPT Commands/T500_3D_Scan_Strategies_fused_layer0007.csv,In-situ Meas Data/Layer Camera/A0007.bmp,134.436256,107.196401,27.239855,0.112352,119.787872,108.443648,111.741344,116.490176,11.344224,-4.748832,16.093056,141.047619,81.050179,59.997440,27.131268,7.493657,13.000000,8,250,250,62500,141.000000,-2.005354,-4.321395,-2.651869
-2.177034,-2.212818,8,106.123846,26.783186,10,255,134.000000,8,8,0,-2.177034,-2.212818,141.704339,0.002460,91.010000,50.810000,234.853713,2.000000,0.795706,3064493,false,4000000,2000,2000,8,train,In-situ Meas Data/Layer Camera/A{index}.bmp::0008,Build Command Data/XYPT Commands/T500_3D_Scan_Strategies_fused_layer0008.csv,In-situ Meas Data/Layer Camera/A0008.bmp,130.454900,104.065846,26.389055,0.101344,116.933952,104.604224,106.887040,114.651136,12.329728,-7.764096,20.093824,139.071685,77.175371,61.896313,26.569805,7.368103,12.806248,8,250,250,62500,139.000000,-4.267889,-4.951131,-2.700781
-1.156758,-0.738172,9,106.271967,26.408959,11,255,134.000000,9,9,0,-1.156758,-0.738172,140.942875,0.003117,91.010000,50.810000,234.908668,2.000000,0.792798,3016377,false,4000000,2000,2000,8,train,In-situ Meas Data/Layer Camera/A{index}.bmp::0009,Build Command Data/XYPT Commands/T500_3D_Scan_Strategies_fused_layer0009.csv,In-situ Meas Data/Layer Camera/A0009.bmp,130.749307,104.217056,26.532252,0.107856,117.449536,104.463808,106.853280,115.060064,12.985728,-8.206784,21.192512,139.650794,77.406554,62.244240,25.165968,7.318659,12.649111,8,250,250,62500,139.000000,-1.060784,-4.180261,-2.176585
-1.987808,-3.063821,10,105.697655,26.121524,11,255,134.000000,10,10,0,-1.987808,-3.063821,144.022902,0.001832,91.010000,50.810000,234.929079,2.000000,0.805304,3141757,false,4000000,2000,2000,8,train,In-situ Meas Data/Layer Camera/A{index}.bmp::0010,Build Command Data/XYPT Commands/T500_3D_Scan_Strategies_fused_layer0010.csv,In-situ Meas Data/Layer Camera/A0010.bmp,130.710821,103.387333,27.323489,0.113904,116.800576,103.855296,105.743424,114.912448,12.945280,-9.169024,22.114304,139.658730,76.925243,62.733487,23.405194,7.240147,12.649111,8,250,250,62500,138.000000,-2.212081,-4.421030,-2.409792
0.122153,-2.371046,11,107.110061,25.984985,11,255,135.000000,11,11,0,0.122153,-2.371046,146.621315,0.001957,91.010000,50.810000,234.899933,2.000000,0.816573,3600370,false,4000000,2000,2000,8,train,In-situ Meas Data/Layer Camera/A{index}.bmp::0011,Build Command Data/XYPT Commands/T500_3D_Scan_Strategies_fused_layer0011.csv,In-situ Meas Data/Layer Camera/A0011.bmp,131.998362,104.786376,27.211986,0.100320,118.068192,105.329120,107.420768,115.976544,12.739072,-8.555776,21.294848,140.373016,78.851767,61.521249,24.470754,7.246508,12.529964,8,250,250,62500,140.000000,-3.516125,-3.991397,-2.545408
-2.151555,-2.056640,12,105.214887,26.043568,12,255,134.000000,12,12,0,-2.151555,-2.056640,141.322873,0.003550,91.010000,50.810000,234.887035,2.000000,0.791932,3046669,false,4000000,2000,2000,8,train,In-situ Meas Data/Layer Camera/A{index}.bmp::0012,Build Command Data/XYPT Commands/T500_3D_Scan_Strategies_fused_layer0012.csv,In-situ Meas Data/Layer Camera/A0012.bmp,130.442933,102.767266,27.675667,0.107888,116.499936,103.094720,105.001664,114.592992,13.405216,-9.591328,22.996544,139.105991,76.318228,62.787762,23.452610,7.163516,12.529964,8,250,250,62500,138.000000,-0.656211,-3.937173,-2.595767
-0.965579,-0.896508,13,105.359706,26.027428,10,255,134.000000,13,13,0,-0.965579,-0.896508,141.737270,0.001746,91.010000,50.810000,234.916000,2.000000,0.794984,3020744,false,4000000,2000,2000,8,train,In-situ Meas Data/Layer Camera/A{index}.bmp::0013,Build Command Data/XYPT Commands/T500_3D_Scan_Strategies_fused_layer0013.csv,In-situ Meas Data/Layer Camera/A0013.bmp,130.679894,102.905885,27.774009,0.107856,116.536608,103.385248,105.131520,114.790336,13.151360,-9.658816,22.810176,139.022529,76.561700,62.460829,25.158649,7.199211,12.369317,8,250,250,62500,138.000000,-4.575964,-5.354350,-2.071985
-2.151467,-3.149865,14,105.221062,25.957146,13,255,133.000000,14,14,0,-2.151467,-3.149865,143.833481,0.001836,91.010000,50.810997,234.927251,2.000000,0.805944,3209660,false,4000000,2000,2000,8,train,In-situ Meas Data/Layer Camera/A{index}.bmp::0014,Build Command Data/XYPT Commands/T500_3D_Scan_Strategies_fused_layer0014.csv,In-situ Meas Data/Layer Camera/A0014.bmp,130.457420,102.790280,27.667140,0.118960,116.388000,103.248352,105.175808,114.460544,13.139648,-9.284736,22.424384,138.660266,76.521505,62.138761,25.974403,7.260400,12.529964,8,250,250,62500,137.000000,-0.628874,-3.847757,-2.236871
-0.022306,-2.210467,15,105.255833,25.947871,11,255,133.000000,15,15,0,-0.022306,-2.210467,146.521318,0.003733,91.010997,50.810000,235.079607,2.000000,0.813509,3531008,false,4000000,2000,2000,8,train,In-situ Meas Data/Layer Camera/A{index}.bmp::0015,Build Command Data/XYPT Commands/T500_3D_Scan_Strategies_fused_layer0015.csv,In-situ Meas Data/Layer Camera/A0015.bmp,130.451436,102.832597,27.618839,0.104272,116.426048,103.270400,105.165440,114.531008,13.155648,-9.365568,22.521216,138.407834,76.529442,61.878392,24.105317,7.168551,12.529964,8,250,250,62500,138.000000,-1.444633,-3.793109,-2.418121
-2.110904,-2.109956,16,105.125563,25.985204,12,255,133.000000,16,16,0,-2.110904,-2.109956,141.524270,0.001945,91.010000,50.810000,234.860005,2.000000,0.787465,2993269,false,4000000,2000,2000,8,train,In-situ Meas Data/Layer Camera/A{index}.bmp::0016,Build Command Data/XYPT Commands/T500_3D_Scan_Strategies_fused_layer0016.csv,In-situ Meas Data/Layer Camera/A0016.bmp,130.391030,102.699854,27.691176,0.100592,116.361920,103.105792,105.036576,114.431136,13.256128,-9.394560,22.650688,138.672811,76.463390,62.209421,26.743710,7.221109,12.529964,8,250,250,62500,138.000000,1.576909,-3.188151,-2.143963
-1.152383,-0.827753,17,105.149689,25.923780,11,255,133.000000,17,17,0,-1.152383,-0.827753,141.477264,0.003093,91.010000,50.810000,234.937204,2.000000,0.795314,3053346,false,4000000,2000,2000,8,train,In-situ Meas Data/Layer Camera/A{index}.bmp::0017,Build Command Data/XYPT Commands/T500_3D_Scan_Strategies_fused_layer0017.csv,In-situ Meas Data/Layer Camera/A0017.bmp,130.400479,102.699790,27.700689,0.118144,116.267936,103.204480,105.094784,114.377632,13.063456,-9.282848,22.346304,138.463390,76.403738,62.059652,26.377116,7.267158,12.529964,8,250,250,62500,137.000000,1.233308,-3.852610,-2.034647
-2.002843,-3.187421,18,105.124356,25.905703,11,255,133.000000,18,18,0,-2.002843,-3.187421,143.328731,0.003840,91.010000,50.810000,234.911150,2.000000,0.810026,3280613,false,4000000,2000,2000,8,train,In-situ Meas Data/Layer Camera/A{index}.bmp::0018,Build Command Data/XYPT Commands/T500_3D_Scan_Strategies_fused_layer0018.csv,In-situ Meas Data/Layer Camera/A0018.bmp,130.454523,102.675210,27.779312,0.100880,116.286048,103.177152,104.977088,114.486112,13.108896,-9.509024,22.617920,138.815668,76.461342,62.354327,24.695916,7.212791,12.529964,8,250,250,62500,138.000000,0.438083,-3.430793,-2.237652
-0.059763,-2.113796,19,105.046952,25.877775,13,255,133.000000,19,19,0,-0.059763,-2.113796,146.325978,0.002206,91.010997,50.810000,234.870248,2.000000,0.813861,3511957,false,4000000,2000,2000,8,train,In-situ Meas Data/Layer Camera/A{index}.bmp::0019,Build Command Data/XYPT Commands/T500_3D_Scan_Strategies_fused_layer0019.csv,In-situ Meas Data/Layer Camera/A0019.bmp,130.302154,102.587637,27.714517,0.116736,116.258752,102.996384,104.942368,114.312768,13.262368,-9.370400,22.632768,138.651818,76.368408,62.283410,23.879074,7.148318,12.206556,8,250,250,62500,137.000000,-0.770345,-3.482783,-2.402700
-2.185806,-1.824914,20,105.012953,25.843409,13,255,133.000000,20,20,0,-2.185806,-1.824914,141.260841,0.002523,91.010000,50.810000,234.926647,2.000000,0.787883,2979100,false,4000000,2000,2000,8,train,In-situ Meas Data/Layer Camera/A{index}.bmp::0020,Build Command Data/XYPT Commands/T500_3D_Scan_Strategies_fused_layer0020.csv,In-situ Meas Data/Layer Camera/A0020.bmp,130.262787,102.518746,27.744041,0.115184,116.081568,103.050784,104.848896,114.283456,13.030784,-9.434560,22.465344,138.552227,76.233743,62.318484,25.824542,7.212890,12.369317,8,250,250,62500,137.000000,1.514613,-3.396086,-2.216365
-0.732495,-1.007835,21,105.007317,25.855587,13,255,133.000000,21,21,0,-0.732495,-1.007835,143.002888,0.003265,91.010000,50.810000,234.911297,2.000000,0.796312,3037312,false,4000000,2000,2000,8,train,In-situ Meas Data/Layer Camera/A{index}.bmp::0021,Build Command Data/XYPT Commands/T500_3D_Scan_Strategies_fused_layer0021.csv,In-situ Meas Data/Layer Camera/A0021.bmp,130.471403,102.478530,27.992873,0.114768,116.122080,103.056256,104.934784,114.243552,13.065824,-9.308768,22.374592,138.570661,76.332309,62.238351,25.416847,7.185722,12.369317,8,250,250,62500,137.000000,-3.861552,-5.204728,-2.214609
-1.987130,-3.440800,22,104.927411,25.816335,14,255,133.000000,22,22,0,-1.987130,-3.440800,143.515479,0.001726,91.010000,50.811000,235.013885,2.000000,0.807174,3317759,false,4000000,2000,2000,8,train,In-situ Meas Data/Layer Camera/A{index}.bmp::0022,Build Command Data/XYPT Commands/T500_3D_Scan_Strategies_fused_layer0022.csv,In-situ Meas Data/Layer Camera/A0022.bmp,130.194444,102.435698,27.758746,0.112192,115.973024,103.000704,104.798912,114.174816,12.972320,-9.375904,22.348224,138.023810,76.235023,61.788786,26.139617,7.280103,12.649111,8,250,250,62500,137.000000,0.849395,-3.454838,-2.080213
0.088920,-2.063300,23,104.934054,25.820737,14,255,133.000000,23,23,0,0.088920,-2.063300,146.605257,0.002023,91.009997,50.810000,234.873835,2.000000,0.812021,3468238,false,4000000,2000,2000,8,train,In-situ Meas Data/Layer Camera/A{index}.bmp::0023,Build Command Data/XYPT Commands/T500_3D_Scan_Strategies_fused_layer0023.csv,In-situ Meas Data/Layer Camera/A0023.bmp,130.296044,102.449833,27.846212,0.113952,116.110368,102.936064,104.819488,114.226944,13.174304,-9.407456,22.581760,138.264465,76.210189,62.054275,26.090762,7.158056,12.206556,8,250,250,62500,137.000000,0.422273,-3.238888,-2.281851
-2.146240,-1.646944,24,104.844150,25.858219,15,255,133.000000,24,24,0,-2.146240,-1.646944,140.530359,0.003424,91.010000,50.810000,266.152309,2.000000,0.787370,2959661,false,4000000,2000,2000,8,train,In-situ Meas Data/Layer Camera/A{index}.bmp::0024,Build Command Data/XYPT Commands/T500_3D_Scan_Strategies_fused_layer0024.csv,In-situ Meas Data/Layer Camera/A0024.bmp,130.115772,102.340683,27.775089,0.112944,116.037568,102.754432,104.613248,114.178752,13.283136,-9.565504,22.848640,138.485919,76.141833,62.344086,25.663454,7.241262,12.529964,8,250,250,62500,137.000000,1.201373,-3.394547,-2.132248
-0.844969,-1.110167,25,105.004637,25.855339,16,255,133.000000,25,25,0,-0.844969,-1.110167,142.439497,0.001711,91.010000,50.810000,234.886219,2.000000,0.800091,3090958,false,4000000,2000,2000,8,train,In-situ Meas Data/Layer Camera/A{index}.bmp::0025,Build Command Data/XYPT Commands/T500_3D_Scan_Strategies_fused_layer0025.csv,In-situ Meas Data/Layer Camera/A0025.bmp,130.301020,102.481190,27.819830,0.113120,116.077824,103.017920,104.737312,114.358432,13.059904,-9.621120,22.681024,138.437276,76.197389,62.239887,26.996063,7.200930,12.206556,8,250,250,62500,137.000000,2.097317,-3.575150,-1.951936
-2.107901,-3.628218,26,104.842316,25.748725,15,255,133.000000,26,26,0,-2.107901,-3.628218,143.162496,0.001748,91.010000,50.810000,234.899937,2.000000,0.811995,3398615,false,4000000,2000,2000,8,train,In-situ Meas Data/Layer Camera/A{index}.bmp::0026,Build Command Data/XYPT Commands/T500_3D_Scan_Strategies_fused_layer0026.csv,In-situ Meas Data/Layer Camera/A0026.bmp,130.065256,102.366271,27.698985,0.108784,115.924416,102.880096,104.698720,114.105792,13.044320,-9.407072,22.451392,138.377880,76.440092,61.937788,23.613228,7.127244,12.206556,8,250,250,62500,137.000000,2.091207,-3.075650,-2.143024
-0.014843,-1.971289,27,104.806080,25.704534,15,255,133.000000,27,27,0,-0.014843,-1.971289,145.787106,0.003645,91.010000,50.810998,234.954665,2.000000,0.812318,3463620,false,4000000,2000,2000,8,train,In-situ Meas Data/Layer Camera/A{index}.bmp::0027,Build Command Data/XYPT Commands/T500_3D_Scan_Strategies_fused_layer0027.csv,In-situ Meas Data/Layer Camera/A0027.bmp,130.020219,102.349284,27.670936,0.109744,115.917920,102.838368,104.515296,114.240992,13.079552,-9.725696,22.805248,137.907578,76.122376,61.785202,24.149822,7.183013,12.369317,8,250,250,62500,137.000000,0.161061,-3.287876,-2.340101
-2.180132,-1.515748,28,104.728901,25.774037,17,255,133.000000,28,28,0,-2.180132,-1.515748,140.260776,0.001984,91.010000,50.810000,234.870391,2.000000,0.784289,2939846,false,4000000,2000,2000,8,train,In-situ Meas Data/Layer Camera/A{index}.bmp::0028,Build Command Data/XYPT Commands/T500_3D_Scan_Strategies_fused_layer0028.csv,In-situ Meas Data/Layer Camera/A0028.bmp,130.019085,102.210299,27.808786,0.107584,115.805824,102.742528,104.472896,114.075456,13.063296,-9.602560,22.665856,138.229647,75.894777,62.334869,25.942003,7.199038,12.206556,8,250,250,62500,137.000000,1.434429,-3.370950,-2.156030
-0.611335,-1.245454,29,104.894373,25.808875,16,255,133.000000,29,29,0,-0.611335,-1.245454,143.837653,0.002809,91.010000,50.810000,234.897695,2.000000,0.803207,3086693,false,4000000,2000,2000,8,train,In-situ Meas Data/Layer Camera/A{index}.bmp::0029,Build Command Data/XYPT Commands/T500_3D_Scan_Strategies_fused_layer0029.csv,In-situ Meas Data/Layer Camera/A0029.bmp,130.341333,102.323417,28.017916,0.111488,116.069696,102.811136,104.656576,114.224256,13.258560,-9.567680,22.826240,138.519457,75.921659,62.597798,26.415625,7.141707,12.206556,8,250,250,62500,137.000000,-1.391723,-4.435891,-2.079432
-2.190415,-3.526528,30,104.665076,25.743747,18,255,132.000000,30,30,0,-2.190415,-3.526528,144.349046,0.003961,91.010000,50.810000,264.333171,2.000000,0.807793,3362404,false,4000000,2000,2000,8,train,In-situ Meas Data/Layer Camera/A{index}.bmp::0030,Build Command Data/XYPT Commands/T500_3D_Scan_Strategies_fused_layer0030.csv,In-situ Meas Data/Layer Camera/A0030.bmp,129.971340,102.169677,27.801664,0.105712,115.791296,102.672192,104.398784,114.064704,13.119104,-9.665920,22.785024,138.356631,75.975934,62.380696,28.337598,7.211658,12.206556,8,250,250,62500,137.000000,1.599143,-3.280980,-2.152655
-0.076991,-2.008095,31,104.575598,25.607915,18,255,132.000000,31,31,0,-0.076991,-2.008095,145.912283,0.002246,91.010112,50.810000,234.886105,2.000000,0.812256,3413347,false,4000000,2000,2000,8,train,In-situ Meas Data/Layer Camera/A{index}.bmp::0031,Build Command Data/XYPT Commands/T500_3D_Scan_Strategies_fused_layer0031.csv,In-situ Meas Data/Layer Camera/A0031.bmp,129.697468,102.067755,27.629713,0.102096,115.656960,102.515328,104.385344,113.786944,13.141632,-9.401600,22.543232,137.806452,76.089350,61.717102,24.384006,7.145794,12.369317,8,250,250,62500,137.000000,-0.890653,-3.598760,-2.334805
-2.457391,-1.575474,32,104.674072,25.658796,17,255,132.000000,32,32,0,-2.457391,-1.575474,139.378627,0.002550,91.010000,50.810000,234.891182,2.000000,0.785714,2956554,false,4000000,2000,2000,8,train,In-situ Meas Data/Layer Camera/A{index}.bmp::0032,Build Command Data/XYPT Commands/T500_3D_Scan_Strategies_fused_layer0032.csv,In-situ Meas Data/Layer Camera/A0032.bmp,129.909171,102.167875,27.741296,0.103728,115.806656,102.622560,104.530112,113.899104,13.184096,-9.368992,22.553088,138.037122,75.894009,62.143113,27.321837,7.188047,12.206556,8,250,250,62500,137.000000,1.951058,-3.251525,-2.200490
-0.671592,-1.306191,33,104.520218,25.473254,19,255,132.000000,33,33,0,-0.671592,-1.306191,143.458921,0.003359,91.010000,50.810000,234.964370,2.000000,0.805178,3148837,false,4000000,2000,2000,8,train,In-situ Meas Data/Layer Camera/A{index}.bmp::0033,Build Command Data/XYPT Commands/T500_3D_Scan_Strategies_fused_layer0033.csv,In-situ Meas Data/Layer Camera/A0033.bmp,129.353804,102.126201,27.227603,0.117840,115.572064,102.512832,104.241024,113.843872,13.059232,-9.602848,22.662080,137.772657,75.960573,61.812084,25.723661,7.153633,12.206556,8,250,250,62500,136.000000,1.904006,-3.845959,-1.983246
-2.018594,-3.516975,34,104.777614,25.648360,18,255,133.000000,34,34,0,-2.018594,-3.516975,144.218030,0.001693,91.010000,50.810000,234.995900,2.000000,0.811392,3412663,false,4000000,2000,2000,8,train,In-situ Meas Data/Layer Camera/A{index}.bmp::0034,Build Command Data/XYPT Commands/T500_3D_Scan_Strategies_fused_layer0034.csv,In-situ Meas Data/Layer Camera/A0034.bmp,130.054863,102.366742,27.688120,0.108128,115.956544,102.843392,104.576096,114.223840,13.113152,-9.647744,22.760896,138.475166,76.069636,62.405530,26.874979,7.191843,12.206556,8,250,250,62500,137.000000,1.684807,-3.124328,-2.299695
-0.125958,-1.862873,35,104.574641,25.540776,19,255,132.000000,35,35,0,-0.125958,-1.862873,145.269619,0.002058,91.010000,50.810000,234.920264,2.000000,0.810755,3374829,false,4000000,2000,2000,8,train,In-situ Meas Data/Layer Camera/A{index}.bmp::0035,Build Command Data/XYPT Commands/T500_3D_Scan_Strategies_fused_layer0035.csv,In-situ Meas Data/Layer Camera/A0035.bmp,129.766251,102.090168,27.676083,0.100080,115.649600,102.591072,104.327872,113.912800,13.058528,-9.584928,22.643456,137.849206,75.857143,61.992063,23.708817,7.146985,12.206556,8,250,250,62500,137.000000,1.033321,-3.266014,-2.134411
-2.396830,-1.390614,36,104.557550,25.422129,18,255,132.000000,36,36,0,-2.396830,-1.390614,139.792604,0.003316,91.010000,50.810000,234.937992,2.000000,0.782967,2906332,false,4000000,2000,2000,8,train,In-situ Meas Data/Layer Camera/A{index}.bmp::0036,Build Command Data/XYPT Commands/T500_3D_Scan_Strategies_fused_layer0036.csv,In-situ Meas Data/Layer Camera/A0036.bmp,129.402305,102.181516,27.220789,0.118624,115.608320,102.583744,104.321024,113.871040,13.024576,-9.550016,22.574592,137.709165,75.789555,61.919611,25.092308,7.112476,12.206556,8,250,250,62500,136.000000,1.561287,-3.496416,-2.161702
-0.536595,-1.446707,37,104.571144,25.409465,20,255,132.000000,37,37,0,-0.536595,-1.446707,144.712989,0.001704,91.010000,50.810000,234.907513,2.000000,0.808155,3133502,false,4000000,2000,2000,8,train,In-situ Meas Data/Layer Camera/A{index}.bmp::0037,Build Command Data/XYPT Commands/T500_3D_Scan_Strategies_fused_layer0037.csv,In-situ Meas Data/Layer Camera/A0037.bmp,129.581192,102.129761,27.451430,0.117936,115.760320,102.445408,104.400768,113.804960,13.314912,-9.404192,22.719104,137.950333,75.974910,61.975422,25.268907,7.121613,12.206556,8,250,250,62500,136.000000,-3.147077,-4.813793,-2.109929
-1.953228,-3.851007,38,104.468112,25.398949,20,255,132.000000,38,38,0,-1.953228,-3.851007,144.845065,0.001740,91.010000,50.810000,234.957294,2.000000,0.807432,3406707,false,4000000,2000,2000,8,train,In-situ Meas Data/Layer Camera/A{index}.bmp::0038,Build Command Data/XYPT Commands/T500_3D_Scan_Strategies_fused_layer0038.csv,In-situ Meas Data/Layer Camera/A0038.bmp,129.342341,102.083970,27.258371,0.116864,115.553760,102.462304,104.216544,113.799520,13.091456,-9.582976,22.674432,137.562212,76.043523,61.518689,24.979212,7.107231,12.206556,8,250,250,62500,136.000000,1.631834,-3.294670,-2.294054
-0.111885,-1.676864,39,108.286333,30.654906,20,255,137.000000,39,39,0,-0.111885,-1.676864,145.803309,0.003586,91.010000,50.810000,234.852739,2.000000,0.806654,3279244,false,4000000,2000,2000,8,train,In-situ Meas Data/Layer Camera/A{index}.bmp::0039,Build Command Data/XYPT Commands/T500_3D_Scan_Strategies_fused_layer0039.csv,In-situ Meas Data/Layer Camera/A0039.bmp,132.310595,106.211929,26.098665,0.108736,116.669056,109.013760,104.885472,120.797344,7.655296,-15.911872,23.567168,156.536866,76.371736,80.165131,31.247866,7.553465,13.000000,8,250,250,62500,141.000000,38.009763,2.828583,-0.736729
-2.353547,-1.223546,40,104.506467,25.387655,20,255,132.000000,40,40,0,-2.353547,-1.223546,139.372635,0.002005,91.010000,50.810000,234.863608,2.000000,0.786642,2917824,false,4000000,2000,2000,8,val,In-situ Meas Data/Layer Camera/A{index}.bmp::0040,Build Command Data/XYPT Commands/T500_3D_Scan_Strategies_fused_layer0040.csv,In-situ Meas Data/Layer Camera/A0040.bmp,129.431091,102.111423,27.319668,0.118016,115.736288,102.365824,104.283136,113.818976,13.370464,-9.535840,22.906304,137.805684,75.746544,62.059140,26.369084,7.171629,12.206556,8,250,250,62500,136.000000,1.162761,-3.681098,-2.230895
-0.440344,-1.565441,41,105.086347,25.423295,21,255,132.000000,41,41,0,-0.440344,-1.565441,145.114406,0.002833,91.010000,50.810000,234.854428,2.000000,0.810358,3164082,false,4000000,2000,2000,8,val,In-situ Meas Data/Layer Camera/A{index}.bmp::0041,Build Command Data/XYPT Commands/T500_3D_Scan_Strategies_fused_layer0041.csv,In-situ Meas Data/Layer Camera/A0041.bmp,130.148652,102.692026,27.456626,0.104480,116.365184,102.967712,105.187136,114.145760,13.397472,-8.958624,22.356096,137.984383,76.417563,61.566820,23.985713,7.072604,12.206556,8,250,250,62500,137.000000,3.070232,-3.342560,-1.964875
-2.113702,-3.777225,42,105.324052,25.353205,21,255,133.000000,42,42,0,-2.113702,-3.777225,144.796953,0.004028,91.010000,50.810000,234.885869,2.000000,0.809691,3415210,false,4000000,2000,2000,8,val,In-situ Meas Data/Layer Camera/A{index}.bmp::0042,Build Command Data/XYPT Commands/T500_3D_Scan_Strategies_fused_layer0042.csv,In-situ Meas Data/Layer Camera/A0042.bmp,130.224994,103.006477,27.218516,0.109424,116.708096,103.132736,105.482272,114.358560,13.575360,-8.876288,22.451648,138.093446,76.416539,61.676907,23.697835,7.105189,12.206556,8,250,250,62500,137.000000,1.831381,-3.136617,-2.214288
-0.330481,-1.625305,43,105.280693,25.410093,22,255,133.000000,43,43,0,-0.330481,-1.625305,144.602580,0.002313,91.010000,50.810000,234.893679,2.000000,0.809672,3283469,false,4000000,2000,2000,8,val,In-situ Meas Data/Layer Camera/A{index}.bmp::0043,Build Command Data/XYPT Commands/T500_3D_Scan_Strategies_fused_layer0043.csv,In-situ Meas Data/Layer Camera/A0043.bmp,130.355757,102.871332,27.484425,0.109312,116.759872,102.945760,105.531104,114.174528,13.814112,-8.643424,22.457536,138.582949,76.283666,62.299283,22.585936,7.084021,12.206556,8,250,250,62500,137.000000,0.186760,-3.234898,-2.172036
-2.353194,-1.296922,44,105.801328,25.153224,22,255,133.000000,44,44,0,-2.353194,-1.296922,138.881424,0.002578,91.010000,50.810009,234.910066,2.000000,0.783851,2914732,false,4000000,2000,2000,8,val,In-situ Meas Data/Layer Camera/A{index}.bmp::0044,Build Command Data/XYPT Commands/T500_3D_Scan_Strategies_fused_layer0044.csv,In-situ Meas Data/Layer Camera/A0044.bmp,130.312295,103.601664,26.710631,0.112480,117.489312,103.283872,106.262720,114.510464,14.205440,-8.247744,22.453184,138.624680,76.851510,61.773169,25.443575,7.137165,12.206556,8,250,250,62500,137.000000,0.562106,-3.800380,-2.069033
-0.164062,-1.703205,45,105.268344,25.322546,22,255,133.000000,45,45,0,-0.164062,-1.703205,146.542351,0.003527,91.010000,50.810000,234.900266,2.000000,0.813919,3161393,false,4000000,2000,2000,8,val,In-situ Meas Data/Layer Camera/A{index}.bmp::0045,Build Command Data/XYPT Commands/T500_3D_Scan_Strategies_fused_layer0045.csv,In-situ Meas Data/Layer Camera/A0045.bmp,130.153628,102.940996,27.212632,0.107088,116.731200,102.975680,105.470176,114.236704,13.755520,-8.766528,22.522048,138.196621,76.336662,61.859959,23.955655,7.070506,12.165525,8,250,250,62500,137.000000,-2.860481,-4.721298,-1.976766
-2.169347,-3.639341,46,105.300342,25.373510,22,255,133.000000,46,46,0,-2.169347,-3.639341,145.023131,0.001693,91.010000,50.810000,304.077330,2.000000,0.808749,3425359,false,4000000,2000,2000,8,val,In-situ Meas Data/Layer Camera/A{index}.bmp::0046,Build Command Data/XYPT Commands/T500_3D_Scan_Strategies_fused_layer0046.csv,In-situ Meas Data/Layer Camera/A0046.bmp,130.081318,102.958648,27.122670,0.107344,116.836864,102.859616,105.534656,114.161824,13.977248,-8.627168,22.604416,138.316692,76.421915,61.894777,24.941738,7.062050,12.165525,8,250,250,62500,137.000000,1.211325,-3.260667,-2.386984
-0.345934,-1.736964,47,105.205935,25.278312,22,255,133.000000,47,47,0,-0.345934,-1.736964,143.939842,0.002096,91.010000,50.810000,234.917413,2.000000,0.810534,3273018,false,4000000,2000,2000,8,val,In-situ Meas Data/Layer Camera/A{index}.bmp::0047,Build Command Data/XYPT Commands/T500_3D_Scan_Strategies_fused_layer0047.csv,In-situ Meas Data/Layer Camera/A0047.bmp,130.086357,102.883365,27.202992,0.107808,116.767680,102.819040,105.456640,114.130080,13.948640,-8.673440,22.622080,138.338710,76.385817,61.952893,22.811449,7.014949,12.083046,8,250,250,62500,137.000000,-2.670257,-4.095541,-2.177343
-2.596843,-1.152713,48,105.228977,25.330716,22,255,133.000000,48,48,0,-2.596843,-1.152713,138.087391,0.003174,91.010000,50.810000,234.965609,2.000000,0.786037,2930018,false,4000000,2000,2000,8,val,In-situ Meas Data/Layer Camera/A{index}.bmp::0048,Build Command Data/XYPT Commands/T500_3D_Scan_Strategies_fused_layer0048.csv,In-situ Meas Data/Layer Camera/A0048.bmp,129.921328,102.963045,26.958283,0.109328,116.879488,102.742272,105.391072,114.230688,14.137216,-8.839616,22.976832,138.472350,76.240911,62.231439,24.134832,7.059002,12.165525,8,250,250,62500,137.000000,-0.334467,-3.472294,-2.142117
-0.136776,-1.772198,49,105.386478,25.253857,20,255,133.000000,49,49,0,-0.136776,-1.772198,146.821433,0.001660,91.010000,50.810000,234.903680,2.000000,0.811914,3194243,false,4000000,2000,2000,8,val,In-situ Meas Data/Layer Camera/A{index}.bmp::0049,Build Command Data/XYPT Commands/T500_3D_Scan_Strategies_fused_layer0049.csv,In-situ Meas Data/Layer Camera/A0049.bmp,130.072436,103.135359,26.937077,0.111360,117.022560,102.933056,105.700256,114.255360,14.089504,-8.555104,22.644608,138.224526,76.469022,61.755504,20.718626,6.966802,12.165525,8,250,250,62500,137.000000,0.804170,-3.847174,-1.907769
-2.067222,-3.590560,50,105.311073,25.311163,22,255,133.000000,50,50,0,-2.067222,-3.590560,144.464767,0.001729,91.010997,50.810000,234.885139,2.000000,0.811010,3446435,false,4000000,2000,2000,8,val,In-situ Meas Data/Layer Camera/A{index}.bmp::0050,Build Command Data/XYPT Commands/T500_3D_Scan_Strategies_fused_layer0050.csv,In-situ Meas Data/Layer Camera/A0050.bmp,129.890716,103.069771,26.820945,0.107344,116.930464,102.834976,105.544928,114.220512,14.095488,-8.675584,22.771072,138.377880,76.552995,61.824885,23.040721,7.020355,12.165525,8,250,250,62500,137.000000,0.482552,-3.285730,-2.305415
-0.537092,-1.425133,51,105.317742,25.148919,21,255,132.000000,51,51,0,-0.537092,-1.425133,144.241097,0.003440,91.010997,50.810000,234.919915,2.000000,0.804821,3192944,false,4000000,2000,2000,8,val,In-situ Meas Data/Layer Camera/A{index}.bmp::0051,Build Command Data/XYPT Commands/T500_3D_Scan_Strategies_fused_layer0051.csv,In-situ Meas Data/Layer Camera/A0051.bmp,129.917297,103.073095,26.844201,0.104016,116.870112,102.913792,105.731168,114.052736,13.956320,-8.321568,22.277888,137.815924,76.701485,61.114439,22.169485,7.026802,12.165525,8,250,250,62500,137.000000,0.176304,-3.499756,-2.051339
-2.567032,-1.183005,52,105.269756,25.278498,22,255,133.000000,52,52,0,-2.567032,-1.183005,138.568894,0.001996,91.010000,50.810000,234.905485,2.000000,0.786633,2934395,false,4000000,2000,2000,8,val,In-situ Meas Data/Layer Camera/A{index}.bmp::0052,Build Command Data/XYPT Commands/T500_3D_Scan_Strategies_fused_layer0052.csv,In-situ Meas Data/Layer Camera/A0052.bmp,129.943185,102.965125,26.978059,0.106976,116.868640,102.767328,105.391136,114.244832,14.101312,-8.853696,22.955008,138.681516,76.235279,62.446237,23.374718,7.011562,12.083046,8,250,250,62500,137.000000,0.314941,-3.538286,-2.091930
-0.037943,-1.893601,53,105.304797,25.218901,21,255,133.000000,53,53,0,-0.037943,-1.893601,147.221135,0.002319,91.010000,50.810000,234.852945,2.000000,0.812725,3237328,false,4000000,2000,2000,8,test,In-situ Meas Data/Layer Camera/A{index}.bmp::0053,Build Command Data/XYPT Commands/T500_3D_Scan_Strategies_fused_layer0053.csv,In-situ Meas Data/Layer Camera/A0053.bmp,130.028282,102.986766,27.041515,0.105264,116.927104,102.784384,105.585408,114.126080,14.142720,-8.540672,22.683392,138.440092,76.386073,62.054019,22.975086,7.047092,12.165525,8,250,250,62500,137.000000,-4.070358,-5.026360,-1.896974
-1.923158,-3.667425,54,105.144149,25.148570,21,255,132.000000,54,54,0,-1.923158,-3.667425,144.871006,0.004021,91.010000,50.810000,234.906645,2.000000,0.804871,3383077,false,4000000,2000,2000,8,test,In-situ Meas Data/Layer Camera/A{index}.bmp::0054,Build Command Data/XYPT Commands/T500_3D_Scan_Strategies_fused_layer0054.csv,In-situ Meas Data/Layer Camera/A0054.bmp,129.565382,102.910690,26.654692,0.102448,116.726336,102.636480,105.394048,113.968768,14.089856,-8.574720,22.664576,137.553507,76.325141,61.228367,21.340196,7.009560,12.083046,8,250,250,62500,137.000000,0.498677,-3.361069,-2.272353
-0.731160,-1.156051,55,105.360443,25.267202,22,255,133.000000,55,55,0,-0.731160,-1.156051,142.711328,0.002372,91.010000,50.810000,234.918001,2.000000,0.803094,3201905,false,4000000,2000,2000,8,test,In-situ Meas Data/Layer Camera/A{index}.bmp::0055,Build Command Data/XYPT Commands/T500_3D_Scan_Strategies_fused_layer0055.csv,In-situ Meas Data/Layer Camera/A0055.bmp,130.179957,103.082468,27.097489,0.111264,117.080960,102.850368,105.681888,114.249440,14.230592,-8.567552,22.798144,138.469022,76.346390,62.122632,22.460013,6.988749,12.083046,8,250,250,62500,137.000000,-3.564689,-4.754974,-2.250110
-2.317048,-1.310144,56,105.332098,25.137272,20,255,133.000000,56,56,0,-2.317048,-1.310144,139.966823,0.002570,91.010000,50.810000,234.860202,2.000000,0.787012,2913440,false,4000000,2000,2000,8,test,In-situ Meas Data/Layer Camera/A{index}.bmp::0056,Build Command Data/XYPT Commands/T500_3D_Scan_Strategies_fused_layer0056.csv,In-situ Meas Data/Layer Camera/A0056.bmp,129.755165,103.122684,26.632481,0.107200,116.978624,102.796896,105.489696,114.285824,14.181728,-8.796128,22.977856,138.275218,76.548131,61.727087,22.863718,7.035211,12.165525,8,250,250,62500,137.000000,-0.538423,-3.588672,-2.057775
-0.205736,-1.875114,57,105.269227,25.095077,21,255,132.000000,57,57,0,-0.205736,-1.875114,146.111058,0.003593,91.010000,50.810036,234.875145,2.000000,0.812951,3323498,false,4000000,2000,2000,8,test,In-situ Meas Data/Layer Camera/A{index}.bmp::0057,Build Command Data/XYPT Commands/T500_3D_Scan_Strategies_fused_layer0057.csv,In-situ Meas Data/Layer Camera/A0057.bmp,129.725561,103.089868,26.635693,0.105696,116.901792,102.809728,105.466880,114.244640,14.092064,-8.777760,22.869824,138.155914,76.592678,61.563236,22.910827,6.974695,12.083046,8,250,250,62500,137.000000,1.245276,-3.034733,-1.827210
-2.027792,-3.802426,58,105.298013,25.228622,20,255,133.000000,58,58,0,-2.027792,-3.802426,143.825367,0.001668,91.010000,50.810000,235.026259,2.000000,0.808473,3426603,false,4000000,2000,2000,8,test,In-situ Meas Data/Layer Camera/A{index}.bmp::0058,Build Command Data/XYPT Commands/T500_3D_Scan_Strategies_fused_layer0058.csv,In-situ Meas Data/Layer Camera/A0058.bmp,129.814311,103.083476,26.730835,0.109568,117.069216,102.677856,105.461440,114.285632,14.391360,-8.824192,23.215552,138.353815,76.345110,62.008705,23.286846,7.072049,12.206556,8,250,250,62500,137.000000,0.413328,-3.201236,-2.194975
-0.777442,-1.123449,59,105.229731,25.196715,21,255,133.000000,59,59,0,-0.777442,-1.123449,142.507448,0.002189,91.010000,50.810000,234.929196,2.000000,0.800512,3155674,false,4000000,2000,2000,8,test,In-situ Meas Data/Layer Camera/A{index}.bmp::0059,Build Command Data/XYPT Commands/T500_3D_Scan_Strategies_fused_layer0059.csv,In-situ Meas Data/Layer Camera/A0059.bmp,129.890338,102.925639,26.964698,0.108752,116.909952,102.640256,105.343936,114.206272,14.269696,-8.862336,23.132032,138.430108,76.088070,62.342038,20.529254,6.991996,12.083046,8,250,250,62500,137.000000,-0.294344,-3.469431,-2.198607
-2.276205,-1.496130,60,105.429058,25.183868,20,255,133.000000,60,60,0,-2.276205,-1.496130,139.838002,0.003336,91.010000,50.810000,234.925219,2.000000,0.787063,2933834,false,4000000,2000,2000,8,test,In-situ Meas Data/Layer Camera/A{index}.bmp::0060,Build Command Data/XYPT Commands/T500_3D_Scan_Strategies_fused_layer0060.csv,In-situ Meas Data/Layer Camera/A0060.bmp,130.160998,103.152883,27.008115,0.108768,117.042624,102.984128,105.810400,114.216352,14.058496,-8.405952,22.464448,138.357911,76.508449,61.849462,22.291894,6.992421,12.083046,8,250,250,62500,137.000000,-0.181847,-3.657286,-2.135709
-0.040257,-2.003624,61,105.462976,25.196806,22,255,133.000000,61,61,0,-0.040257,-2.003624,146.631334,0.001590,91.010000,50.810013,234.891452,2.000000,0.814653,3368986,false,4000000,2000,2000,8,test,In-situ Meas Data/Layer Camera/A{index}.bmp::0061,Build Command Data/XYPT Commands/T500_3D_Scan_Strategies_fused_layer0061.csv,In-situ Meas Data/Layer Camera/A0061.bmp,130.113316,103.291695,26.821620,0.111680,117.216224,102.993408,105.883552,114.326080,14.222816,-8.442528,22.665344,138.737071,76.675115,62.061956,22.717128,7.048219,12.083046,8,250,250,62500,137.000000,-2.405266,-4.238739,-1.941497
-1.979565,-3.493515,62,105.187168,25.257824,22,255,133.000000,62,62,0,-1.979565,-3.493515,144.141978,0.001758,91.010000,50.810000,409.831913,2.000000,0.804004,3375376,false,4000000,2000,2000,8,test,In-situ Meas Data/Layer Camera/A{index}.bmp::0062,Build Command Data/XYPT Commands/T500_3D_Scan_Strategies_fused_layer0062.csv,In-situ Meas Data/Layer Camera/A0062.bmp,129.762031,102.995496,26.766535,0.107136,116.924736,102.664512,105.398112,114.191136,14.260224,-8.793024,23.053248,138.129288,76.085253,62.044035,24.047545,7.058083,12.165525,8,250,250,62500,137.000000,0.496599,-3.397856,-2.220111
-0.736946,-1.219649,63,105.319366,25.247867,22,255,133.000000,63,63,0,-0.736946,-1.219649,142.485041,0.003336,91.010000,50.810000,234.928208,2.000000,0.797849,3129790,false,4000000,2000,2000,8,test,In-situ Meas Data/Layer Camera/A{index}.bmp::0063,Build Command Data/XYPT Commands/T500_3D_Scan_Strategies_fused_layer0063.csv,In-situ Meas Data/Layer Camera/A0063.bmp,130.127299,102.980289,27.147010,0.110768,117.015488,102.736640,105.571392,114.180736,14.278848,-8.609344,22.888192,138.545059,76.242448,62.302611,23.344216,7.070928,12.206556,8,250,250,62500,137.000000,-3.377677,-4.409795,-2.090970
-2.265941,-1.621930,64,105.205168,25.198500,22,255,133.000000,64,64,0,-2.265941,-1.621930,140.456919,0.001991,91.010000,50.810000,234.923018,2.000000,0.787569,2936745,false,4000000,2000,2000,8,test,In-situ Meas Data/Layer Camera/A{index}.bmp::0064,Build Command Data/XYPT Commands/T500_3D_Scan_Strategies_fused_layer0064.csv,In-situ Meas Data/Layer Camera/A0064.bmp,129.795037,102.978745,26.816292,0.110416,116.978080,102.602944,105.359520,114.221504,14.375136,-8.861984,23.237120,138.516129,76.050179,62.465950,22.114594,7.015469,12.165525,8,250,250,62500,137.000000,-0.666856,-3.363273,-2.069666
0.094117,-2.067908,65,105.090323,25.137176,20,255,132.000000,65,65,0,0.094117,-2.067908,147.001955,0.002456,91.010000,50.810997,234.962656,2.000000,0.813940,3420494,false,4000000,2000,2000,8,test,In-situ Meas Data/Layer Camera/A{index}.bmp::0065,Build Command Data/XYPT Commands/T500_3D_Scan_Strategies_fused_layer0065.csv,In-situ Meas Data/Layer Camera/A0065.bmp,129.603679,102.901124,26.702555,0.104912,116.841120,102.526880,105.310272,114.057728,14.314240,-8.747456,23.061696,138.006912,76.024322,61.982591,21.782373,7.011982,12.083046,8,250,250,62500,137.000000,0.480474,-3.248430,-1.981040
-1.811107,-2.760944,2,109.422834,31.878624,10,255,140.000000,2,1,1,-1.811107,-2.760944,145.087036,0.001939,91.010000,50.810000,235.028177,2.000000,0.805249,3019778,false,4000000,2000,2000,8,train,In-situ Meas Data/Layer Camera/B{index}.bmp::0001,Build Command Data/XYPT Commands/T500_3D_Scan_Strategies_fused_layer0002.csv,In-situ Meas Data/Layer Camera/B0001.bmp,137.547619,106.073138,31.474481,0.112608,121.750144,106.386176,112.630112,115.506208,15.363968,-2.876096,18.240064,142.169227,80.110599,62.058628,87.967972,9.486068,15.264338,8,250,250,62500,144.000000,1.969010,4.855048,2.234373
0.110425,-2.399388,3,110.842249,32.388090,10,255,142.000000,3,2,1,0.110425,-2.399388,147.934996,0.003854,91.010000,50.811000,337.921243,2.000000,0.815874,3572844,false,4000000,2000,2000,8,train,In-situ Meas Data/Layer Camera/B{index}.bmp::0002,Build Command Data/XYPT Commands/T500_3D_Scan_Strategies_fused_layer0003.csv,In-situ Meas Data/Layer Camera/B0002.bmp,139.090577,107.514542,31.576035,0.102080,123.512544,107.558176,114.563424,116.507296,15.954368,-1.943872,17.898240,146.292013,80.508449,65.783565,94.403440,9.909874,16.031220,8,250,250,62500,146.000000,3.757244,4.930423,2.501570
-2.168910,-2.532706,4,110.349847,32.635315,11,255,141.000000,4,3,1,-2.168910,-2.532706,142.701208,0.001899,91.010000,50.810000,234.901664,2.000000,0.800250,3083028,false,4000000,2000,2000,8,train,In-situ Meas Data/Layer Camera/B{index}.bmp::0003,Build Command Data/XYPT Commands/T500_3D_Scan_Strategies_fused_layer0004.csv,In-situ Meas Data/Layer Camera/B0003.bmp,137.531809,107.306516,30.225293,0.107600,121.417568,108.550880,114.201824,115.766624,12.866688,-1.564800,14.431488,144.338966,80.841014,63.497952,95.679321,9.956887,16.155494,8,250,250,62500,145.000000,2.863442,4.563454,2.450646
-1.215392,-0.547020,5,111.195316,34.406437,11,255,141.000000,5,4,1,-1.215392,-0.547020,140.633100,0.003100,91.010000,50.810995,234.891638,2.000000,0.790935,2983098,false,4000000,2000,2000,8,train,In-situ Meas Data/Layer Camera/B{index}.bmp::0004,Build Command Data/XYPT Commands/T500_3D_Scan_Strategies_fused_layer0005.csv,In-situ Meas Data/Layer Camera/B0004.bmp,140.972978,107.368909,33.604069,0.111392,123.295552,108.514208,116.189632,115.620128,14.781344,0.569504,15.662336,151.196019,81.900666,69.295354,99.820256,9.853439,16.000000,8,250,250,62500,145.000000,6.618103,6.324084,2.299383
-1.965121,-2.947774,6,110.515434,32.642288,11,255,141.000000,6,5,1,-1.965121,-2.947774,143.833176,0.003713,91.010000,50.810000,234.882388,2.000000,0.806066,3118681,false,4000000,2000,2000,8,train,In-situ Meas Data/Layer Camera/B{index}.bmp::0005,Build Command Data/XYPT Commands/T500_3D_Scan_Strategies_fused_layer0006.csv,In-situ Meas Data/Layer Camera/B0005.bmp,136.786281,107.824404,28.961877,0.105184,121.120736,109.241632,115.188512,115.173856,11.879104,0.014656,12.723776,142.110087,82.505376,59.604711,98.133936,9.923337,16.155494,8,250,250,62500,145.000000,1.424288,4.548460,2.322722
0.071529,-2.364212,7,110.702892,32.185873,11,255,141.000000,7,6,1,0.071529,-2.364212,146.913714,0.002150,91.010000,50.810000,235.062382,2.000000,0.817918,3613174,false,4000000,2000,2000,8,train,In-situ Meas Data/Layer Camera/B{index}.bmp::0006,Build Command Data/XYPT Commands/T500_3D_Scan_Strategies_fused_layer0007.csv,In-situ Meas Data/Layer Camera/B0006.bmp,136.441610,108.368415,28.073195,0.109440,121.842016,109.156896,114.955680,116.043232,12.685120,-1.087552,14.250304,138.774962,82.854583,55.920379,95.130504,10.145527,16.552945,8,250,250,62500,145.000000,2.005354,4.321395,2.651869
-2.177034,-2.212818,8,108.937014,31.734317,11,255,138.000000,8,7,1,-2.177034,-2.212818,141.704339,0.002460,91.010000,50.810000,234.853713,2.000000,0.795706,3064493,false,4000000,2000,2000,8,train,In-situ Meas Data/Layer Camera/B{index}.bmp::0007,Build Command Data/XYPT Commands/T500_3D_Scan_Strategies_fused_layer0008.csv,In-situ Meas Data/Layer Camera/B0007.bmp,134.722789,106.471217,28.251573,0.102864,119.652000,107.643136,113.010560,114.284576,12.008864,-1.274016,13.525952,137.755504,80.873784,56.881720,101.305256,10.068883,15.811388,8,250,250,62500,143.000000,4.267889,4.951131,2.700781
-1.156758,-0.738172,9,106.728918,30.589220,11,255,136.000000,9,8,1,-1.156758,-0.738172,140.942875,0.003117,91.010000,50.810000,234.908668,2.000000,0.792798,3016377,false,4000000,2000,2000,8,train,In-situ Meas Data/Layer Camera/B{index}.bmp::0008,Build Command Data/XYPT Commands/T500_3D_Scan_Strategies_fused_layer0009.csv,In-situ Meas Data/Layer Camera/B0008.bmp,131.810091,104.365927,27.444163,0.115968,116.103296,106.571072,109.653312,113.021056,9.532224,-3.367744,12.899968,138.669483,78.987199,59.682284,91.236890,9.495245,15.132746,8,250,250,62500,140.000000,1.060784,4.180261,2.176585
-1.987808,-3.063821,10,106.752521,30.542554,11,255,136.000000,10,9,1,-1.987808,-3.063821,144.022902,0.001832,91.010000,50.810000,234.929079,2.000000,0.805304,3141757,false,4000000,2000,2000,8,train,In-situ Meas Data/Layer Camera/B{index}.bmp::0009,Build Command Data/XYPT Commands/T500_3D_Scan_Strategies_fused_layer0010.csv,In-situ Meas Data/Layer Camera/B0009.bmp,132.922902,104.001458,28.921444,0.112736,117.102720,105.593216,109.782496,112.913440,11.509504,-3.130944,14.640448,137.531490,78.480031,59.051459,94.999685,9.649940,15.231546,8,250,250,62500,140.000000,2.212081,4.421030,2.409792
0.122153,-2.371046,11,108.299624,29.976382,10,255,137.000000,11,10,1,0.122153,-2.371046,146.621315,0.001957,91.010000,50.810000,234.899933,2.000000,0.816573,3600370,false,4000000,2000,2000,8,train,In-situ Meas Data/Layer Camera/B{index}.bmp::0010,Build Command Data/XYPT Commands/T500_3D_Scan_Strategies_fused_layer0011.csv,In-situ Meas Data/Layer Camera/B0010.bmp,135.514487,105.227930,30.286557,0.100544,118.728416,107.113984,111.386880,114.455520,11.614432,-3.068640,14.683072,140.039939,80.555556,59.484383,90.916635,9.791916,15.556349,8,250,250,62500,142.000000,3.516125,3.991397,2.545408
-2.151555,-2.056640,12,105.810369,29.980741,11,255,135.000000,12,11,1,-2.151555,-2.056640,141.322873,0.003550,91.010000,50.810000,234.887035,2.000000,0.791932,3046669,false,4000000,2000,2000,8,train,In-situ Meas Data/Layer Camera/B{index}.bmp::0011,Build Command Data/XYPT Commands/T500_3D_Scan_Strategies_fused_layer0012.csv,In-situ Meas Data/Layer Camera/B0011.bmp,131.099143,103.354045,27.745098,0.102656,116.297632,104.505856,107.944704,112.858784,11.791776,-4.914080,16.705856,134.271633,78.014337,56.257296,104.790196,9.759282,15.231546,8,250,250,62500,140.000000,0.656211,3.937173,2.595767
-0.965579,-0.896508,13,106.855194,31.381778,12,255,136.000000,13,12,1,-0.965579,-0.896508,141.737270,0.001746,91.010000,50.810000,234.916000,2.000000,0.794984,3020744,false,4000000,2000,2000,8,train,In-situ Meas Data/Layer Camera/B{index}.bmp::0012,Build Command Data/XYPT Commands/T500_3D_Scan_Strategies_fused_layer0013.csv,In-situ Meas Data/Layer Camera/B0012.bmp,135.255858,103.265893,31.989965,0.107280,118.230368,104.553344,110.059520,112.724192,13.677024,-2.664672,16.341696,144.818342,78.006912,66.811430,92.095441,9.271195,14.560220,8,250,250,62500,140.000000,4.575964,5.354350,2.071985
-2.151467,-3.149865,14,105.663841,29.804903,11,255,135.000000,14,13,1,-2.151467,-3.149865,143.833481,0.001836,91.010000,50.810997,234.927251,2.000000,0.805944,3209660,false,4000000,2000,2000,8,train,In-situ Meas Data/Layer Camera/B{index}.bmp::0013,Build Command Data/XYPT Commands/T500_3D_Scan_Strategies_fused_layer0014.csv,In-situ Meas Data/Layer Camera/B0013.bmp,131.086294,103.112260,27.974034,0.100752,116.511584,103.924640,108.024256,112.411968,12.586944,-4.387712,16.974656,134.396057,77.971326,56.424731,94.375521,9.497271,15.000000,8,250,250,62500,140.000000,0.628874,3.847757,2.236871
-0.022306,-2.210467,15,106.139332,29.740980,11,255,135.000000,15,14,1,-0.022306,-2.210467,146.521318,0.003733,91.010997,50.810000,235.079607,2.000000,0.813509,3531008,false,4000000,2000,2000,8,train,In-situ Meas Data/Layer Camera/B{index}.bmp::0014,Build Command Data/XYPT Commands/T500_3D_Scan_Strategies_fused_layer0015.csv,In-situ Meas Data/Layer Camera/B0014.bmp,131.896070,103.487281,28.408788,0.116720,116.881376,104.525760,108.309216,113.097920,12.355616,-4.788704,17.144320,136.070661,78.053251,58.017409,89.034637,9.586672,15.000000,8,250,250,62500,139.000000,1.444633,3.793109,2.418121
-2.110904,-2.109956,16,105.107169,29.173355,12,255,135.000000,16,15,1,-2.110904,-2.109956,141.524270,0.001945,91.010000,50.810000,234.860005,2.000000,0.787465,2993269,false,4000000,2000,2000,8,train,In-situ Meas Data/Layer Camera/B{index}.bmp::0015,Build Command Data/XYPT Commands/T500_3D_Scan_Strategies_fused_layer0016.csv,In-situ Meas Data/Layer Camera/B0015.bmp,128.814122,103.090704,25.723418,0.109152,115.369920,103.879808,106.806688,112.443040,11.490112,-5.636352,17.126464,132.197645,77.952381,54.245264,89.706826,9.365072,14.764823,8,250,250,62500,139.000000,-1.576909,3.188151,2.143963
-1.152383,-0.827753,17,104.880251,29.776390,12,255,134.000000,17,16,1,-1.152383,-0.827753,141.477264,0.003093,91.010000,50.810000,234.937204,2.000000,0.795314,3053346,false,4000000,2000,2000,8,train,In-situ Meas Data/Layer Camera/B{index}.bmp::0016,Build Command Data/XYPT Commands/T500_3D_Scan_Strategies_fused_layer0017.csv,In-situ Meas Data/Layer Camera/B0016.bmp,129.167171,102.677462,26.489708,0.108544,115.025728,103.786816,107.096480,111.716064,11.238912,-4.619584,15.858496,134.882744,77.866359,57.016385,93.396552,9.301805,14.764823,8,250,250,62500,139.000000,-1.233308,3.852610,2.034647
-2.002843,-3.187421,18,105.415592,29.336496,12,255,135.000000,18,17,1,-2.002843,-3.187421,143.328731,0.003840,91.010000,50.810000,234.911150,2.000000,0.810026,3280613,false,4000000,2000,2000,8,train,In-situ Meas Data/Layer Camera/B{index}.bmp::0017,Build Command Data/XYPT Commands/T500_3D_Scan_Strategies_fused_layer0018.csv,In-situ Meas Data/Layer Camera/B0017.bmp,130.016440,103.157751,26.858689,0.109408,116.146688,103.813888,107.311072,112.649504,12.332800,-5.338432,17.671232,135.121864,77.936764,57.185100,88.147376,9.450442,14.866069,8,250,250,62500,139.000000,-0.438083,3.430793,2.237652
-0.059763,-2.113796,19,105.718440,29.360558,12,255,135.000000,19,18,1,-0.059763,-2.113796,146.325978,0.002206,91.010997,50.810000,234.870248,2.000000,0.813861,3511957,false,4000000,2000,2000,8,train,In-situ Meas Data/Layer Camera/B{index}.bmp::0018,Build Command Data/XYPT Commands/T500_3D_Scan_Strategies_fused_layer0019.csv,In-situ Meas Data/Layer Camera/B0018.bmp,131.072499,103.206031,27.866468,0.111216,116.971904,103.597216,107.720608,112.848512,13.374688,-5.127904,18.502592,135.623835,77.853815,57.770020,93.674401,9.551018,14.866069,8,250,250,62500,139.000000,0.770345,3.482783,2.402700
-2.185806,-1.824914,20,104.746363,29.239495,13,255,134.000000,20,19,1,-2.185806,-1.824914,141.260841,0.002523,91.010000,50.810000,234.926647,2.000000,0.787883,2979100,false,4000000,2000,2000,8,train,In-situ Meas Data/Layer Camera/B{index}.bmp::0019,Build Command Data/XYPT Commands/T500_3D_Scan_Strategies_fused_layer0020.csv,In-situ Meas Data/Layer Camera/B0019.bmp,128.748173,102.698181,26.049992,0.102432,114.860320,103.770272,106.917824,111.712768,11.090048,-4.794944,15.884992,133.650282,77.745520,55.904762,91.921038,9.429255,14.866069,8,250,250,62500,139.000000,-1.514613,3.396086,2.216365
-0.732495,-1.007835,21,106.377691,31.060315,14,255,135.000000,21,20,1,-0.732495,-1.007835,143.002888,0.003265,91.010000,50.810000,234.911297,2.000000,0.796312,3037312,false,4000000,2000,2000,8,train,In-situ Meas Data/Layer Camera/B{index}.bmp::0020,Build Command Data/XYPT Commands/T500_3D_Scan_Strategies_fused_layer0021.csv,In-situ Meas Data/Layer Camera/B0020.bmp,134.332955,102.903548,31.429408,0.113872,117.726912,104.047328,109.288928,112.485312,13.679584,-3.196384,16.875968,141.753590,77.648746,64.104845,91.387777,9.400331,14.764823,8,250,250,62500,139.000000,3.861552,5.204728,2.214609
-1.987130,-3.440800,22,105.026208,29.271173,14,255,134.000000,22,21,1,-1.987130,-3.440800,143.515479,0.001726,91.010000,50.811000,235.013885,2.000000,0.807174,3317759,false,4000000,2000,2000,8,train,In-situ Meas Data/Layer Camera/B{index}.bmp::0021,Build Command Data/XYPT Commands/T500_3D_Scan_Strategies_fused_layer0022.csv,In-situ Meas Data/Layer Camera/B0021.bmp,129.345049,102.812972,26.532077,0.102736,115.273440,103.831648,107.244544,111.860544,11.441792,-4.616000,16.057792,132.680236,77.802867,54.877368,91.287766,9.360316,14.560220,8,250,250,62500,139.000000,-0.849395,3.454838,2.080213
0.088920,-2.063300,23,105.373186,29.059625,14,255,134.000000,23,22,1,0.088920,-2.063300,146.605257,0.002023,91.009997,50.810000,234.873835,2.000000,0.812021,3468238,false,4000000,2000,2000,8,train,In-situ Meas Data/Layer Camera/B{index}.bmp::0022,Build Command Data/XYPT Commands/T500_3D_Scan_Strategies_fused_layer0023.csv,In-situ Meas Data/Layer Camera/B0022.bmp,129.873772,103.153698,26.720074,0.103808,116.429344,103.452704,107.484800,112.397248,12.976640,-4.912448,17.889088,134.758125,78.002048,56.756077,87.238683,9.439907,14.866069,8,250,250,62500,139.000000,-0.422273,3.238888,2.281851
-2.146240,-1.646944,24,104.852335,29.252766,14,255,134.000000,24,23,1,-2.146240,-1.646944,140.530359,0.003424,91.010000,50.810000,266.152309,2.000000,0.787370,2959661,false,4000000,2000,2000,8,train,In-situ Meas Data/Layer Camera/B{index}.bmp::0023,Build Command Data/XYPT Commands/T500_3D_Scan_Strategies_fused_layer0024.csv,In-situ Meas Data/Layer Camera/B0023.bmp,128.914399,102.774344,26.140055,0.100912,115.604992,103.223680,106.602560,112.226112,12.381312,-5.623552,18.004864,133.881208,77.665131,56.216078,90.485446,9.373510,14.422205,8,250,250,62500,139.000000,-1.201373,3.394547,2.132248
-0.844969,-1.110167,25,104.426801,29.430489,15,255,134.000000,25,24,1,-0.844969,-1.110167,142.439497,0.001711,91.010000,50.810000,234.886219,2.000000,0.800091,3090958,false,4000000,2000,2000,8,train,In-situ Meas Data/Layer Camera/B{index}.bmp::0024,Build Command Data/XYPT Commands/T500_3D_Scan_Strategies_fused_layer0025.csv,In-situ Meas Data/Layer Camera/B0024.bmp,128.203704,102.372855,25.830849,0.108464,114.499968,103.368640,106.057472,111.811136,11.131328,-5.753664,16.884992,133.849206,77.486175,56.363031,88.104626,9.152866,14.212670,8,250,250,62500,138.000000,-2.097317,3.575150,1.951936
-2.107901,-3.628218,26,104.673745,28.824375,16,255,134.000000,26,25,1,-2.107901,-3.628218,143.162496,0.001748,91.010000,50.810000,234.899937,2.000000,0.811995,3398615,false,4000000,2000,2000,8,train,In-situ Meas Data/Layer Camera/B{index}.bmp::0025,Build Command Data/XYPT Commands/T500_3D_Scan_Strategies_fused_layer0026.csv,In-situ Meas Data/Layer Camera/B0025.bmp,127.974049,102.810527,25.163522,0.108736,115.291072,103.113856,106.781024,111.623904,12.177216,-4.842880,17.020096,131.714542,77.610855,54.103687,85.991917,9.270268,14.422205,8,250,250,62500,138.000000,-2.091207,3.075650,2.143024
-0.014843,-1.971289,27,105.224554,28.992410,16,255,134.000000,27,26,1,-0.014843,-1.971289,145.787106,0.003645,91.010000,50.810998,234.954665,2.000000,0.812318,3463620,false,4000000,2000,2000,8,train,In-situ Meas Data/Layer Camera/B{index}.bmp::0026,Build Command Data/XYPT Commands/T500_3D_Scan_Strategies_fused_layer0027.csv,In-situ Meas Data/Layer Camera/B0026.bmp,129.859158,102.944406,26.914752,0.100592,115.482400,104.079968,106.790464,112.771904,11.402432,-5.981440,17.383872,132.994880,77.727855,55.267025,91.139604,9.523114,14.866069,8,250,250,62500,139.000000,-0.161061,3.287876,2.340101
-2.180132,-1.515748,28,104.624013,29.144987,15,255,134.000000,28,27,1,-2.180132,-1.515748,140.260776,0.001984,91.010000,50.810000,234.870391,2.000000,0.784289,2939846,false,4000000,2000,2000,8,train,In-situ Meas Data/Layer Camera/B{index}.bmp::0027,Build Command Data/XYPT Commands/T500_3D_Scan_Strategies_fused_layer0028.csv,In-situ Meas Data/Layer Camera/B0027.bmp,128.584656,102.542446,26.042210,0.109232,115.143808,103.171360,106.338048,111.977120,11.972448,-5.639072,17.611520,131.956733,77.444700,54.512033,89.744274,9.355068,14.317821,8,250,250,62500,138.000000,-1.434429,3.370950,2.156030
-0.611335,-1.245454,29,105.546189,30.244766,17,255,134.000000,29,28,1,-0.611335,-1.245454,143.837653,0.002809,91.010000,50.810000,234.897695,2.000000,0.803207,3086693,false,4000000,2000,2000,8,train,In-situ Meas Data/Layer Camera/B{index}.bmp::0028,Build Command Data/XYPT Commands/T500_3D_Scan_Strategies_fused_layer0029.csv,In-situ Meas Data/Layer Camera/B0028.bmp,131.733056,102.676304,29.056752,0.112624,116.865344,103.249024,108.461984,111.652384,13.616320,-3.190400,16.806720,140.603427,77.505120,63.098306,85.733804,9.221139,14.317821,8,250,250,62500,138.000000,1.391723,4.435891,2.079432
-2.190415,-3.526528,30,104.677401,29.024727,17,255,134.000000,30,29,1,-2.190415,-3.526528,144.349046,0.003961,91.010000,50.810000,264.333171,2.000000,0.807793,3362404,false,4000000,2000,2000,8,train,In-situ Meas Data/Layer Camera/B{index}.bmp::0029,Build Command Data/XYPT Commands/T500_3D_Scan_Strategies_fused_layer0030.csv,In-situ Meas Data/Layer Camera/B0029.bmp,128.372197,102.674481,25.697716,0.109424,115.815904,102.588320,106.520960,111.883264,13.227584,-5.362304,18.589888,133.798515,77.361495,56.437020,90.022887,9.364314,14.422205,8,250,250,62500,138.000000,-1.599143,3.280980,2.152655
-0.076991,-2.008095,31,105.278659,29.206675,17,255,134.000000,31,30,1,-0.076991,-2.008095,145.912283,0.002246,91.010112,50.810000,234.886105,2.000000,0.812256,3413347,false,4000000,2000,2000,8,train,In-situ Meas Data/Layer Camera/B{index}.bmp::0030,Build Command Data/XYPT Commands/T500_3D_Scan_Strategies_fused_layer0031.csv,In-situ Meas Data/Layer Camera/B0030.bmp,130.588120,102.839825,27.748295,0.112432,116.181216,103.595456,107.311808,112.464864,12.585760,-5.153056,17.738816,133.484757,77.390681,56.094076,88.699046,9.480599,14.764823,8,250,250,62500,138.000000,0.890653,3.598760,2.334805
-2.457391,-1.575474,32,104.488005,28.910321,18,255,133.000000,32,31,1,-2.457391,-1.575474,139.378627,0.002550,91.010000,50.810000,234.891182,2.000000,0.785714,2956554,false,4000000,2000,2000,8,train,In-situ Meas Data/Layer Camera/B{index}.bmp::0031,Build Command Data/XYPT Commands/T500_3D_Scan_Strategies_fused_layer0032.csv,In-situ Meas Data/Layer Camera/B0031.bmp,127.958113,102.548473,25.409640,0.105040,114.775104,103.230752,106.011264,111.994592,11.544352,-5.983328,17.527680,131.632104,77.420635,54.211470,90.468670,9.388536,14.422205,8,250,250,62500,138.000000,-1.951058,3.251525,2.200490
-0.671592,-1.306191,33,104.111685,29.319213,19,255,133.000000,33,32,1,-0.671592,-1.306191,143.458921,0.003359,91.010000,50.810000,234.964370,2.000000,0.805178,3148837,false,4000000,2000,2000,8,train,In-situ Meas Data/Layer Camera/B{index}.bmp::0032,Build Command Data/XYPT Commands/T500_3D_Scan_Strategies_fused_layer0033.csv,In-situ Meas Data/Layer Camera/B0032.bmp,127.449798,102.184047,25.265752,0.101392,114.141504,103.062400,106.215296,110.988608,11.079104,-4.773312,15.852416,133.376856,77.443164,55.933692,84.997446,9.136879,14.212670,8,250,250,62500,138.000000,-1.904006,3.845959,1.983246
-2.018594,-3.516975,34,104.679328,28.772688,19,255,134.000000,34,33,1,-2.018594,-3.516975,144.218030,0.001693,91.010000,50.810000,234.995900,2.000000,0.811392,3412663,false,4000000,2000,2000,8,train,In-situ Meas Data/Layer Camera/B{index}.bmp::0033,Build Command Data/XYPT Commands/T500_3D_Scan_Strategies_fused_layer0034.csv,In-situ Meas Data/Layer Camera/B0033.bmp,128.370055,102.653204,25.716851,0.104512,115.450752,102.920640,106.044224,112.327168,12.530112,-6.282944,18.813056,134.069892,77.510497,56.559396,93.623227,9.491538,14.560220,8,250,250,62500,138.000000,-1.684807,3.124328,2.299695
-0.125958,-1.862873,35,104.754880,28.806790,18,255,134.000000,35,34,1,-0.125958,-1.862873,145.269619,0.002058,91.010000,50.810000,234.920264,2.000000,0.810755,3374829,false,4000000,2000,2000,8,train,In-situ Meas Data/Layer Camera/B{index}.bmp::0034,Build Command Data/XYPT Commands/T500_3D_Scan_Strategies_fused_layer0035.csv,In-situ Meas Data/Layer Camera/B0034.bmp,128.732930,102.665022,26.067908,0.104992,115.705184,102.868192,106.256096,112.317280,12.836992,-6.061184,18.898176,132.845110,77.384025,55.461086,89.191472,9.281396,14.317821,8,250,250,62500,138.000000,-1.033321,3.266014,2.134411
-2.396830,-1.390614,36,104.227852,28.918545,20,255,133.000000,36,35,1,-2.396830,-1.390614,139.792604,0.003316,91.010000,50.810000,234.937992,2.000000,0.782967,2906332,false,4000000,2000,2000,8,train,In-situ Meas Data/Layer Camera/B{index}.bmp::0035,Build Command Data/XYPT Commands/T500_3D_Scan_Strategies_fused_layer0036.csv,In-situ Meas Data/Layer Camera/B0035.bmp,127.841018,102.276660,25.564358,0.101616,114.306016,103.234816,106.135840,111.404992,11.071200,-5.269152,16.340352,132.091142,77.354071,54.737071,90.190302,9.274178,14.317821,8,250,250,62500,138.000000,-1.561287,3.496416,2.161702
-0.536595,-1.446707,37,105.664299,30.223258,18,255,134.000000,37,36,1,-0.536595,-1.446707,144.712989,0.001704,91.010000,50.810000,234.907513,2.000000,0.808155,3133502,false,4000000,2000,2000,8,train,In-situ Meas Data/Layer Camera/B{index}.bmp::0036,Build Command Data/XYPT Commands/T500_3D_Scan_Strategies_fused_layer0037.csv,In-situ Meas Data/Layer Camera/B0036.bmp,132.728269,102.611209,30.117060,0.111904,117.151488,103.371360,108.541920,111.980928,13.780128,-3.439008,17.219136,139.913580,77.447261,62.466320,84.148745,9.231541,14.317821,8,250,250,62500,138.000000,3.147077,4.813793,2.109929
-1.953228,-3.851007,38,104.471672,28.693619,19,255,133.000000,38,37,1,-1.953228,-3.851007,144.845065,0.001740,91.010000,50.810000,234.957294,2.000000,0.807432,3406707,false,4000000,2000,2000,8,train,In-situ Meas Data/Layer Camera/B{index}.bmp::0037,Build Command Data/XYPT Commands/T500_3D_Scan_Strategies_fused_layer0038.csv,In-situ Meas Data/Layer Camera/B0037.bmp,127.710506,102.604839,25.105668,0.115904,114.814272,103.149888,106.297760,111.666400,11.664384,-5.368640,17.033024,130.548643,77.310804,53.237839,95.168335,9.401285,14.422205,8,250,250,62500,137.000000,-1.631834,3.294670,2.294054
-0.111885,-1.676864,39,82.587801,27.826323,15,255,114.000000,39,38,1,-0.111885,-1.676864,145.803309,0.003586,91.010000,50.810000,234.852739,2.000000,0.806654,3279244,false,4000000,2000,2000,8,train,In-situ Meas Data/Layer Camera/B{index}.bmp::0038,Build Command Data/XYPT Commands/T500_3D_Scan_Strategies_fused_layer0039.csv,In-situ Meas Data/Layer Camera/B0038.bmp,94.300831,83.318806,10.982026,0.103488,81.649376,90.567456,70.683136,101.533696,-8.918080,-30.850560,39.768640,114.535903,49.351457,65.184446,80.874206,8.290194,12.529964,8,250,250,62500,118.000000,-38.009763,-2.828583,0.736729
-2.353547,-1.223546,40,104.639617,29.068753,20,255,133.000000,40,39,1,-2.353547,-1.223546,139.372635,0.002005,91.010000,50.810000,234.863608,2.000000,0.786642,2917824,false,4000000,2000,2000,8,val,In-situ Meas Data/Layer Camera/B{index}.bmp::0039,Build Command Data/XYPT Commands/T500_3D_Scan_Strategies_fused_layer0040.csv,In-situ Meas Data/Layer Camera/B0039.bmp,128.268330,102.638877,25.629453,0.100432,115.301248,102.997088,106.040128,112.258208,12.304160,-6.218080,18.522240,134.214542,77.346390,56.868152,95.376853,9.402524,14.317821,8,250,250,62500,138.000000,-1.162761,3.681098,2.230895
-0.440344,-1.565441,41,104.025948,28.765855,20,255,133.000000,41,40,1,-0.440344,-1.565441,145.114406,0.002833,91.010000,50.810000,234.854428,2.000000,0.810358,3164082,false,4000000,2000,2000,8,val,In-situ Meas Data/Layer Camera/B{index}.bmp::0040,Build Command Data/XYPT Commands/T500_3D_Scan_Strategies_fused_layer0041.csv,In-situ Meas Data/Layer Camera/B0040.bmp,127.078420,102.225270,24.853150,0.114448,114.366400,102.710336,105.814912,111.261824,11.656064,-5.446912,17.102976,133.308756,77.172043,56.136713,85.138092,9.037478,14.212670,8,250,250,62500,137.000000,-3.070232,3.342560,1.964875
-2.113702,-3.777225,42,105.899483,28.489822,21,255,135.000000,42,41,1,-2.113702,-3.777225,144.796953,0.004028,91.010000,50.810000,234.885869,2.000000,0.809691,3415210,false,4000000,2000,2000,8,val,In-situ Meas Data/Layer Camera/B{index}.bmp::0041,Build Command Data/XYPT Commands/T500_3D_Scan_Strategies_fused_layer0042.csv,In-situ Meas Data/Layer Camera/B0041.bmp,128.393613,104.423473,23.970140,0.111376,117.170368,103.854176,108.696224,112.328320,13.316192,-3.632096,16.948288,131.848694,79.016641,52.832053,85.980076,9.319477,14.422205,8,250,250,62500,139.000000,-1.831381,3.136617,2.214288
-0.330481,-1.625305,43,106.444314,28.644991,21,255,135.000000,43,42,1,-0.330481,-1.625305,144.602580,0.002313,91.010000,50.810000,234.893679,2.000000,0.809672,3283469,false,4000000,2000,2000,8,val,In-situ Meas Data/Layer Camera/B{index}.bmp::0042,Build Command Data/XYPT Commands/T500_3D_Scan_Strategies_fused_layer0043.csv,In-situ Meas Data/Layer Camera/B0042.bmp,130.168997,104.528848,25.640149,0.100368,117.527424,104.556288,109.033472,113.050240,12.971136,-4.016768,16.987904,133.670251,79.093446,54.576805,82.507438,9.256057,14.317821,8,250,250,62500,140.000000,-0.186760,3.234898,2.172036
-2.353194,-1.296922,44,105.952926,28.953604,22,255,135.000000,44,43,1,-2.353194,-1.296922,138.881424,0.002578,91.010000,50.810009,234.910066,2.000000,0.783851,2914732,false,4000000,2000,2000,8,val,In-situ Meas Data/Layer Camera/B{index}.bmp::0043,Build Command Data/XYPT Commands/T500_3D_Scan_Strategies_fused_layer0044.csv,In-situ Meas Data/Layer Camera/B0043.bmp,129.750189,103.934604,25.815584,0.111744,116.882784,104.101568,109.179168,111.805184,12.781216,-2.626016,15.407232,133.179724,78.848694,54.331029,89.003570,9.206198,14.317821,8,250,250,62500,139.000000,-0.562106,3.800380,2.069033
-0.164062,-1.703205,45,107.088284,30.043844,22,255,135.000000,45,44,1,-0.164062,-1.703205,146.542351,0.003527,91.010000,50.810000,234.900266,2.000000,0.813919,3161393,false,4000000,2000,2000,8,val,In-situ Meas Data/Layer Camera/B{index}.bmp::0044,Build Command Data/XYPT Commands/T500_3D_Scan_Strategies_fused_layer0045.csv,In-situ Meas Data/Layer Camera/B0044.bmp,133.014109,104.452149,28.561960,0.104400,119.071872,104.342816,111.155168,112.259520,14.729056,-1.104352,16.708800,143.326531,79.081157,64.245373,79.700884,9.047271,14.317821,8,250,250,62500,140.000000,2.860481,4.721298,1.976766
-2.169347,-3.639341,46,106.137195,28.634177,22,255,135.000000,46,45,1,-2.169347,-3.639341,145.023131,0.001693,91.010000,50.810000,304.077330,2.000000,0.808749,3425359,false,4000000,2000,2000,8,val,In-situ Meas Data/Layer Camera/B{index}.bmp::0045,Build Command Data/XYPT Commands/T500_3D_Scan_Strategies_fused_layer0046.csv,In-situ Meas Data/Layer Camera/B0045.bmp,128.869992,104.541888,24.328104,0.115520,118.134880,103.308352,108.975872,112.467360,14.826528,-3.491488,18.318016,132.955152,79.100358,53.854794,92.109587,9.449034,14.560220,8,250,250,62500,139.000000,-1.211325,3.260667,2.386984
-0.345934,-1.736964,47,106.957061,29.373853,22,255,135.000000,47,46,1,-0.345934,-1.736964,143.939842,0.002096,91.010000,50.810000,234.917413,2.000000,0.810534,3273018,false,4000000,2000,2000,8,val,In-situ Meas Data/Layer Camera/B{index}.bmp::0046,Build Command Data/XYPT Commands/T500_3D_Scan_Strategies_fused_layer0047.csv,In-situ Meas Data/Layer Camera/B0046.bmp,132.756614,104.353659,28.402955,0.103792,118.850720,104.286208,110.575488,112.561440,14.564512,-1.985952,16.550464,140.158982,79.006144,61.152838,78.668081,9.192292,14.317821,8,250,250,62500,140.000000,2.670257,4.095541,2.177343
-2.596843,-1.152713,48,106.355088,28.803010,22,255,135.000000,48,47,1,-2.596843,-1.152713,138.087391,0.003174,91.010000,50.810000,234.965609,2.000000,0.786037,2930018,false,4000000,2000,2000,8,val,In-situ Meas Data/Layer Camera/B{index}.bmp::0047,Build Command Data/XYPT Commands/T500_3D_Scan_Strategies_fused_layer0048.csv,In-situ Meas Data/Layer Camera/B0047.bmp,130.255795,104.367064,25.888731,0.100048,117.426240,104.460192,109.183648,112.702784,12.966048,-3.519136,16.485184,134.411418,78.875064,55.536354,88.882904,9.201119,14.422205,8,250,250,62500,140.000000,0.334467,3.472294,2.142117
-0.136776,-1.772198,49,106.012409,29.101031,23,255,135.000000,49,48,1,-0.136776,-1.772198,146.821433,0.001660,91.010000,50.810000,234.903680,2.000000,0.811914,3194243,false,4000000,2000,2000,8,val,In-situ Meas Data/Layer Camera/B{index}.bmp::0048,Build Command Data/XYPT Commands/T500_3D_Scan_Strategies_fused_layer0049.csv,In-situ Meas Data/Layer Camera/B0048.bmp,129.268267,104.197688,25.070579,0.112576,116.627904,104.504128,109.173440,111.958592,12.123776,-2.785152,14.908928,136.863031,79.094214,57.768817,74.752054,8.874571,14.142136,8,250,250,62500,139.000000,-0.804170,3.847174,1.907769
-2.067222,-3.590560,50,106.329557,28.596893,22,255,135.000000,50,49,1,-2.067222,-3.590560,144.464767,0.001729,91.010997,50.810000,234.885139,2.000000,0.811010,3446435,false,4000000,2000,2000,8,val,In-situ Meas Data/Layer Camera/B{index}.bmp::0049,Build Command Data/XYPT Commands/T500_3D_Scan_Strategies_fused_layer0050.csv,In-situ Meas Data/Layer Camera/B0049.bmp,129.408163,104.597911,24.810252,0.100672,117.976288,103.823936,108.516864,113.283360,14.152352,-4.766496,18.918848,134.139529,79.040707,55.098822,88.498864,9.325771,14.422205,8,250,250,62500,140.000000,-0.482552,3.285730,2.305415
-0.537092,-1.425133,51,106.220232,28.648675,22,255,135.000000,51,50,1,-0.537092,-1.425133,144.241097,0.003440,91.010997,50.810000,234.919915,2.000000,0.804821,3192944,false,4000000,2000,2000,8,val,In-situ Meas Data/Layer Camera/B{index}.bmp::0050,Build Command Data/XYPT Commands/T500_3D_Scan_Strategies_fused_layer0051.csv,In-situ Meas Data/Layer Camera/B0050.bmp,129.740993,104.342034,25.398959,0.114544,117.595744,103.991808,108.887680,112.699872,13.603936,-3.812192,17.416128,133.054788,78.966974,54.087814,83.180740,9.078142,14.317821,8,250,250,62500,139.000000,-0.176304,3.499756,2.051339
-2.567032,-1.183005,52,106.192540,28.816784,22,255,135.000000,52,51,1,-2.567032,-1.183005,138.568894,0.001996,91.010000,50.810000,234.905485,2.000000,0.786633,2934395,false,4000000,2000,2000,8,val,In-situ Meas Data/Layer Camera/B{index}.bmp::0051,Build Command Data/XYPT Commands/T500_3D_Scan_Strategies_fused_layer0052.csv,In-situ Meas Data/Layer Camera/B0051.bmp,129.628244,104.307503,25.320741,0.114240,117.256928,104.221824,108.988672,112.490080,13.035104,-3.501408,16.536512,134.061956,79.042755,55.019201,83.135161,9.103493,14.317821,8,250,250,62500,139.000000,-0.314941,3.538286,2.091930
-0.037943,-1.893601,53,107.391563,30.245261,22,255,135.000000,53,52,1,-0.037943,-1.893601,147.221135,0.002319,91.010000,50.810000,234.852945,2.000000,0.812725,3237328,false,4000000,2000,2000,8,test,In-situ Meas Data/Layer Camera/B{index}.bmp::0052,Build Command Data/XYPT Commands/T500_3D_Scan_Strategies_fused_layer0053.csv,In-situ Meas Data/Layer Camera/B0052.bmp,134.098639,104.456589,29.642051,0.106464,119.607296,104.364992,111.612480,112.359808,15.242304,-0.747328,16.982528,145.119174,78.883001,66.236173,76.126210,8.944066,14.142136,8,250,250,62500,140.000000,4.070358,5.026360,1.896974
-1.923158,-3.667425,54,106.149261,28.509639,22,255,135.000000,54,53,1,-1.923158,-3.667425,144.871006,0.004021,91.010000,50.810000,234.906645,2.000000,0.804871,3383077,false,4000000,2000,2000,8,test,In-situ Meas Data/Layer Camera/B{index}.bmp::0053,Build Command Data/XYPT Commands/T500_3D_Scan_Strategies_fused_layer0054.csv,In-situ Meas Data/Layer Camera/B0053.bmp,129.066704,104.542124,24.524580,0.114320,117.415328,104.128192,108.823968,112.719552,13.287136,-3.895584,17.182720,131.767537,78.814132,52.953405,86.563221,9.281912,14.422205,8,250,250,62500,139.000000,-0.498677,3.361069,2.272353
-0.731160,-1.156051,55,107.146744,30.022176,22,255,135.000000,55,54,1,-0.731160,-1.156051,142.711328,0.002372,91.010000,50.810000,234.918001,2.000000,0.803094,3201905,false,4000000,2000,2000,8,test,In-situ Meas Data/Layer Camera/B{index}.bmp::0054,Build Command Data/XYPT Commands/T500_3D_Scan_Strategies_fused_layer0055.csv,In-situ Meas Data/Layer Camera/B0054.bmp,133.744646,104.357927,29.386719,0.108096,119.867872,103.777376,111.092512,112.552736,16.090496,-1.460224,18.670144,145.833711,79.087814,66.745898,85.541993,9.238859,14.317821,8,250,250,62500,140.000000,3.564689,4.754974,2.250110
-2.317048,-1.310144,56,106.444803,28.725944,22,255,135.000000,56,55,1,-2.317048,-1.310144,139.966823,0.002570,91.010000,50.810000,234.860202,2.000000,0.787012,2913440,false,4000000,2000,2000,8,test,In-situ Meas Data/Layer Camera/B{index}.bmp::0055,Build Command Data/XYPT Commands/T500_3D_Scan_Strategies_fused_layer0056.csv,In-situ Meas Data/Layer Camera/B0055.bmp,130.293588,104.468964,25.824623,0.115344,118.063680,103.993984,109.045408,113.012256,14.069696,-3.966848,18.036544,135.703533,79.039683,56.663850,85.205226,9.092986,14.212670,8,250,250,62500,139.000000,0.538423,3.588672,2.057775
-0.205736,-1.875114,57,106.004426,28.129810,22,255,134.000000,57,56,1,-0.205736,-1.875114,146.111058,0.003593,91.010000,50.810036,234.875145,2.000000,0.812951,3323498,false,4000000,2000,2000,8,test,In-situ Meas Data/Layer Camera/B{index}.bmp::0056,Build Command Data/XYPT Commands/T500_3D_Scan_Strategies_fused_layer0057.csv,In-situ Meas Data/Layer Camera/B0056.bmp,128.480285,104.454423,24.025862,0.108544,117.182336,103.932416,108.811136,112.303616,13.249920,-3.492480,16.742400,133.065284,79.147977,53.917307,73.881598,8.801905,14.142136,8,250,250,62500,139.000000,-1.245276,3.034733,1.827210
-2.027792,-3.802426,58,106.376739,28.429858,21,255,135.000000,58,57,1,-2.027792,-3.802426,143.825367,0.001668,91.010000,50.810000,235.026259,2.000000,0.808473,3426603,false,4000000,2000,2000,8,test,In-situ Meas Data/Layer Camera/B{index}.bmp::0057,Build Command Data/XYPT Commands/T500_3D_Scan_Strategies_fused_layer0058.csv,In-situ Meas Data/Layer Camera/B0057.bmp,129.400983,104.691168,24.709815,0.116192,117.923584,104.012128,108.999808,112.935904,13.911456,-3.936096,17.847552,133.291347,78.931132,54.360215,82.857128,9.267024,14.317821,8,250,250,62500,139.000000,-0.413328,3.201236,2.194975
-0.777442,-1.123449,59,106.532041,28.666146,21,255,135.000000,59,58,1,-0.777442,-1.123449,142.507448,0.002189,91.010000,50.810000,234.929196,2.000000,0.800512,3155674,false,4000000,2000,2000,8,test,In-situ Meas Data/Layer Camera/B{index}.bmp::0058,Build Command Data/XYPT Commands/T500_3D_Scan_Strategies_fused_layer0059.csv,In-situ Meas Data/Layer Camera/B0058.bmp,130.184681,104.667231,25.517450,0.104320,117.699104,104.599040,109.113888,113.184256,13.100064,-4.070368,17.170432,134.813108,79.095238,55.717870,81.854283,9.190603,14.317821,8,250,250,62500,140.000000,0.294344,3.469431,2.198607
-2.276205,-1.496130,60,106.096931,28.841154,22,255,135.000000,60,59,1,-2.276205,-1.496130,139.838002,0.003336,91.010000,50.810000,234.925219,2.000000,0.787063,2933834,false,4000000,2000,2000,8,test,In-situ Meas Data/Layer Camera/B{index}.bmp::0059,Build Command Data/XYPT Commands/T500_3D_Scan_Strategies_fused_layer0060.csv,In-situ Meas Data/Layer Camera/B0059.bmp,130.342845,103.979925,26.362920,0.101040,117.449920,103.903136,109.283392,112.069664,13.546784,-2.786272,16.333056,133.792371,78.785714,55.006656,84.646980,9.128130,14.317821,8,250,250,62500,140.000000,0.181847,3.657286,2.135709
-0.040257,-2.003624,61,106.998040,29.435545,22,255,135.000000,61,60,1,-0.040257,-2.003624,146.631334,0.001590,91.010000,50.810013,234.891452,2.000000,0.814653,3368986,false,4000000,2000,2000,8,test,In-situ Meas Data/Layer Camera/B{index}.bmp::0060,Build Command Data/XYPT Commands/T500_3D_Scan_Strategies_fused_layer0061.csv,In-situ Meas Data/Layer Camera/B0060.bmp,132.518582,104.547894,27.970688,0.104064,119.318784,103.987008,110.928352,112.377440,15.331776,-1.449088,17.521600,143.461325,79.006144,64.455181,73.278089,8.989716,14.212670,8,250,250,62500,140.000000,2.405266,4.238739,1.941497
-1.979565,-3.493515,62,106.230506,28.655680,21,255,135.000000,62,61,1,-1.979565,-3.493515,144.141978,0.001758,91.010000,50.810000,409.831913,2.000000,0.804004,3375376,false,4000000,2000,2000,8,test,In-situ Meas Data/Layer Camera/B{index}.bmp::0061,Build Command Data/XYPT Commands/T500_3D_Scan_Strategies_fused_layer0062.csv,In-situ Meas Data/Layer Camera/B0061.bmp,129.265432,104.527711,24.737721,0.114176,118.360288,103.262688,108.882464,112.740512,15.097600,-3.858048,18.955648,134.621096,78.884281,55.736815,90.981676,9.278194,14.422205,8,250,250,62500,139.000000,-0.496599,3.397856,2.220111
-0.736946,-1.219649,63,107.028824,29.657662,23,255,135.000000,63,62,1,-0.736946,-1.219649,142.485041,0.003336,91.010000,50.810000,234.928208,2.000000,0.797849,3129790,false,4000000,2000,2000,8,test,In-situ Meas Data/Layer Camera/B{index}.bmp::0062,Build Command Data/XYPT Commands/T500_3D_Scan_Strategies_fused_layer0063.csv,In-situ Meas Data/Layer Camera/B0062.bmp,133.504976,104.184712,29.320264,0.102528,119.276864,103.988192,110.825472,112.439584,15.288672,-1.614112,17.301248,142.308894,78.841270,63.467624,80.325259,9.161898,14.317821,8,250,250,62500,140.000000,3.377677,4.409795,2.090970
-2.265941,-1.621930,64,106.347708,28.561773,22,255,135.000000,64,63,1,-2.265941,-1.621930,140.456919,0.001991,91.010000,50.810000,234.923018,2.000000,0.787569,2936745,false,4000000,2000,2000,8,test,In-situ Meas Data/Layer Camera/B{index}.bmp::0063,Build Command Data/XYPT Commands/T500_3D_Scan_Strategies_fused_layer0064.csv,In-situ Meas Data/Layer Camera/B0063.bmp,130.461892,104.277003,26.184889,0.116928,117.819296,104.037472,109.366208,112.490560,13.781824,-3.124352,16.906176,132.795699,78.638249,54.157450,84.016575,9.085134,14.317821,8,250,250,62500,139.000000,0.666856,3.363273,2.069666
0.094117,-2.067908,65,105.933948,28.385606,22,255,135.000000,65,64,1,0.094117,-2.067908,147.001955,0.002456,91.010000,50.810997,234.962656,2.000000,0.813940,3420494,false,4000000,2000,2000,8,test,In-situ Meas Data/Layer Camera/B{index}.bmp::0064,Build Command Data/XYPT Commands/T500_3D_Scan_Strategies_fused_layer0065.csv,In-situ Meas Data/Layer Camera/B0064.bmp,129.123205,104.197795,24.925410,0.110096,116.922048,104.136448,108.889024,112.169472,12.785600,-3.280448,16.066048,134.970558,78.756528,56.214030,74.383879,8.993022,14.212670,8,250,250,62500,139.000000,-0.480474,3.248430,1.981040
